assets/images/school__course-item--eiken.svg

<svg fill="none" height="22" viewBox="0 0 134 22" width="134" xmlns="http://www.w3.org/2000/svg"><g fill="#231815"><path d="m25.673 12.6289c0-.48.2409-.749.662-.749h.66v-2.67092c0-.47998.27-.75.75-.75h3.285v-.6311c0-.47998.2699-.75.75-.75h.6759c.4801 0 .75.25513.75.68994v.69116h3.4961c.48 0 .75.27002.75.75v2.67092h.435c.4799 0 .75.269.75.749v.511c0 .48-.2701.75-.75.75h-3.9461c.9301.946 2.2951 1.5461 4.1421 1.8459.57.0901.6899.4051.374.8692-.149.2109-.284.4519-.405.676-.2101.3909-.51.5559-.9601.4658-2.2059-.4658-3.7059-1.3808-4.8009-2.8659-.8711 1.1989-2.415 2.176-4.9961 2.8349-.4509.1052-.751-.0298-.9909-.4199l-.345-.5249c-.345-.4641-.21-.8101.376-.9451 2.129-.48 3.3299-1.1411 3.99-1.936h-3.9001c-.4809 0-.7519-.27-.7519-.75zm.1209-6.82592v-.43506c0-.47998.2701-.75.75-.75h1.9201v-.28589c0-.47998.271-.75.751-.75h.555c.48 0 .75.17993.75.51099v.5249h3.226v-.28589c0-.47998.271-.75.7509-.75h.5701c.48 0 .75.17993.75.51099v.5249h1.95c.4809 0 .7509.27002.7509.75v.43506c0 .47998-.27.75-.7509.75h-1.95v.46606c0 .47998-.27.74878-.75.74878h-.5701c-.4799 0-.7509-.22387-.7509-.61499v-.59985h-3.226v.46606c0 .47998-.27.74878-.75.74878h-.555c-.48 0-.751-.2688-.751-.74878v-.46606h-1.9201c-.4799 0-.75-.27002-.75-.75zm5.2361 4.53202h-2.041v1.5449h2.041zm4.307 0h-2.1311v1.5449h2.1311z"/><path d="m41.3741 12.7949c.6599-1.155 1.2159-2.7461 1.5299-4.17088h-.7639c-.48 0-.7511-.27099-.7511-.75097v-.50904c0-.47998.2711-.75.7511-.75h.854v-2.28198c0-.47998.2699-.75.75-.75h.4209c.4801 0 .75.27002.75.75v2.28198h.676.494v.01392c1.126-.6001 2.176-1.59106 2.8511-2.53491.241-.34497.496-.4961.901-.4961h.719c.3899 0 .662.13599.9149.46509.766.97486 1.7411 1.84595 2.791 2.38696.4511.22388.5561.53907.301.97388-.1049.18018-.211.37598-.301.55615-.225.44996-.5389.61499-.885.3899-.1789-.10596-.345-.22486-.525-.34497 0 .46508-.2689.7351-.75.7351h-.8999v.71997h2.1899c.48 0 .751.27002.751.75v2.8359c0 .48-.271.751-.751.751h-1.5899c.66 1.095 1.41 1.635 2.296 2.01.4809.1951.5539.481.24.8999-.1211.1651-.225.3311-.3151.4961-.255.4351-.556.585-.991.374-1.005-.4951-1.859-1.1999-2.5799-2.4309-.5701.9759-1.5 1.875-3.046 2.521-.4361.18-.75.0298-.99-.374l-.2261-.3162c-.3149-.4499-.209-.7788.316-1.0058 1.4411-.5991 2.1601-1.365 2.505-2.1741h-1.695c-.481 0-.75-.271-.75-.751v-2.8359c0-.47998.269-.75.75-.75h2.026v-.71997h-.8109c-.48 0-.75-.15014-.75-.406v-.40503c-.1651.10596-.3151.22485-.48.31494-.421.28589-.766.19604-.9301-.16406-.0909-.18091-.181-.375-.286-.55493v.3291c0 .47998-.2099.75097-.584.75097h-.586v.48096c.255.38989.8561 1.33402 1.2301 1.94902.2099.361.1959.6909-.0141 1.0358l-.1049.1802c-.3311.555-.7211.676-.8561.314-.075-.208-.1649-.449-.255-.6741v5.176c0 .48-.2699.751-.75.751h-.4209c-.4801 0-.75-.271-.75-.751v-4.021c-.1341.3899-.2841.7801-.4351 1.125-.27.6011-.75.6011-.989.076l-.2259-.4361c-.1951-.375-.1801-.6757.03-1.0349zm7.9679-1.6799h-.991v1.05h.991zm2.2351-4.12696c-.525-.49414-.99-1.03516-1.3201-1.53003-.3299.51001-.78 1.03589-1.3209 1.53003zm.72 4.12696h-1.095v1.05h1.095z"/><path d="m60.427 12.7053v-1.5158c0-.48.27-.75.75-.75h1.5c.48 0 .75.27.75.75v1.5158c0 .48-.27.75-.75.75h-1.5c-.48 0-.75-.27-.75-.75z"/><path d="m58.167 7.3584c-1.356 0-2.458-1.10108-2.458-2.45801 0-1.35596 1.102-2.45703 2.458-2.45703 1.3559 0 2.464 1.10107 2.464 2.45703 0 1.35693-1.1081 2.45801-2.464 2.45801zm.007-4.56397c-1.157 0-2.107.94995-2.107 2.10596 0 1.15698.95 2.10693 2.107 2.10693 1.156 0 2.106-.94995 2.106-2.10693 0-1.15601-.95-2.10596-2.106-2.10596zm.785 3.63501-.7161-1.20507h-.4889v1.20507h-.5581v-3.0979h1.0601c.62 0 1.081.30982 1.081.9148 0 .43408-.186.7041-.5161.86914l.7781 1.31396zm-.744-2.56103h-.461v.83301h.4679c.296 0 .5371-.10303.5371-.448 0-.28198-.269-.38501-.544-.38501z"/><path d="m67.989 6.61304c0-.47998.272-.75098.752-.75098h4.7259v-1.53003c0-.48096.27-.75.75-.75h.6311c.4779 0 .75.26904.75.75v1.53003h4.8009c.4801 0 .75.271.75.75098v.62988c0 .47998-.2699.75-.75.75h-1.26c-.7369 2.08598-1.7109 3.82588-2.9419 5.28098 1.2009.93 2.656 1.666 4.366 2.1621.541.149.645.48.316.93-.2101.3-.421.6001-.586.8999-.24.3911-.554.5251-.99.3911-1.95-.617-3.5561-1.4861-4.876-2.6421-1.35 1.126-2.9561 1.9961-4.787 2.656-.436.165-.75.0142-.974-.3899-.151-.2561-.316-.54-.4811-.7952-.2999-.4509-.1799-.8108.3461-.9599 1.6649-.5249 3.105-1.23 4.3209-2.1619-1.1849-1.4851-2.1009-3.2851-2.8519-5.37108h-1.259c-.48 0-.752-.27002-.752-.75zm6.573 5.13086c.885-1.0501 1.59-2.29493 2.115-3.75098h-4.35c.539 1.39502 1.2749 2.65598 2.235 3.75098z"/><path d="m84.183 8.20386c.2409-.37598.5859-.49488 1.005-.31494.5109.21093 1.051.47998 1.5019.75.4041.25512.464.63012.2101 1.03613l-.3451.53975c-.271.4351-.615.4651-1.036.1792-.3899-.2551-.856-.53902-1.3049-.76412-.4501-.24096-.5561-.58593-.2851-1.02099zm1.771 4.14114c.2399-.48.63-.5701 1.036-.21l.4189.376c.3311.2839.406.615.2251 1.0339-.4951 1.126-1.05 2.2661-1.6201 3.346-.24.466-.615.5561-1.0339.2251l-.5871-.449c-.359-.2861-.4349-.6311-.194-1.0361.5251-.9161 1.1711-2.086 1.7551-3.2859zm.405-5.92703c-.374-.28394-.854-.58399-1.306-.82495-.449-.25513-.554-.61499-.2551-1.03614l.2861-.38989c.255-.36011.5999-.479 1.005-.28418.5109.23902 1.0499.53907 1.4849.8252.4051.27002.45.62988.1801 1.03589l-.359.52514c-.286.40479-.63.44995-1.036.14893zm1.23 3.76583c0-.47994.271-.74996.7509-.74996h2.761v-1.78589h-2.056c-.48 0-.75-.26904-.75-.74902v-.57007c0-.48096.27-.75.75-.75h2.056v-1.24683c0-.47998.27-.75.75-.75h.6601c.4799 0 .75.27002.75.75v1.24683h2.176c.48 0 .75.26904.75.75v.57007c0 .47998-.27.74902-.75.74902h-2.176v1.78589h2.88c.4809 0 .7519.27002.7519.74996v.5701c0 .48-.271.752-.7519.752h-4.08l.1649.0441c-.4199 1.17-.9149 2.3709-1.381 3.3899l3.016-.1799c-.165-.2842-.3449-.5552-.525-.8252-.2839-.4189-.21-.7798.2411-1.0339l.495-.271c.4039-.2249.7639-.1641 1.0349.2099.75 1.021 1.4861 2.2061 1.9351 3.2112.1799.4358.045.75-.359.99l-.6601.3899c-.452.2551-.781.1799-.916-.1799-.0749-.18-.151-.374-.241-.5701-2.175.21-4.4559.405-6.2719.5559-.48.0452-.7641-.2109-.824-.6758l-.0911-.6892c-.0589-.511.1061-.7968.421-.8108l.5101-.0151c.4189-1.0501.8709-2.3709 1.155-3.54h-1.4251c-.4799 0-.7509-.272-.7509-.752z"/><path d="m101.089 16.2749v-.856c0-.4799.27-.75.75-.75h6.031v-6.27193h-6.031c-.48 0-.75-.27002-.75-.75v-.854c0-.47998.27-.75195.75-.75195h7.727c.48 0 .75.27197.75.75195v9.48193c0 .48-.27.75-.75.75h-7.727c-.48 0-.75-.27-.75-.75z"/><path d="m113.861 12.3892v-.856c0-.48.27-.75.75-.75h5.432c.48 0 .75.27.75.75v.856c0 .4799-.27.75-.75.75h-5.432c-.48 0-.75-.2701-.75-.75z"/><path d="m123.708 16.7871v-1.2009c0-.405.165-.6751.509-.9011 2.642-1.649 4.352-3.6448 5.477-6.481h-4.68c-.482 0-.75-.27002-.75-.75v-.91504c0-.48095.268-.75.75-.75h7.036c.524 0 .795.31519.659.8252-.464 1.97998-1.304 3.67604-2.22 5.08594.705 1.0349 1.727 2.01 2.581 2.7461.3.2549.421.5249.421.9148v1.216c0 .629-.421.8541-.93.4642-1.306-1.0352-2.341-2.1011-3.406-3.5252-1.036 1.2752-2.852 2.8362-4.562 3.811-.495.3001-.885.044-.885-.54z"/></g><path d="m21.4199 10.71c0-5.52201-2.73-10.71-10.7099-10.71-7.98002 0-10.71 5.18799-10.71 10.71 0 5.5219 2.72998 10.7099 10.71 10.7099 7.9799 0 10.7099-5.188 10.7099-10.7099z" fill="#fccf00"/><path d="m4.896 14.2764c0-.8011.40893-1.399 1.46704-1.399.76794 0 1.51892.3589 2.16699.4949.22192-.3918.34094-1.0918.40991-1.5359l.13599-.9551c-1.14295-.1879-2.50794-.666-3.46399-1.65498l1.07507-1.41699c.90491.75097 1.84302 1.1101 2.62793 1.28003.35803-2.45704 1.33106-4.02686 3.66906-4.02686 1.177 0 2.526.78491 2.526 2.38892 0 1.29712-1.041 3.27608-4.4031 3.51488l-.1709 1.1782c-.085.563-.29 1.45-.5631 1.9109.4441.187 1.0241.273 1.6731.273 1.211 0 2.167-.6829 2.9519-2.1839l1.4501.699c-.887 1.8938-2.338 3.208-4.4711 3.1399-1.0069-.0339-2.01291-.29-2.95188-.614-.58007.4431-1.31408.614-2.06506.614-1.29602 0-2.047-.7681-2.06396-1.707zm8.6-6.77396c0-.427-.273-.64795-.648-.64795-.717 0-1.229.95484-1.451 2.30298 1.706-.23804 2.099-1.19409 2.099-1.65503z" fill="#fff"/></svg>

<svg width="134" height="22" viewBox="0 0 134 22" fill="none" xmlns="http://www.w3.org/2000/svg">
<path d="M25.673 12.6289C25.673 12.1489 25.9139 11.8799 26.335 11.8799H26.995V9.20898C26.995 8.729 27.265 8.45898 27.745 8.45898H31.03V7.82788C31.03 7.3479 31.2999 7.07788 31.78 7.07788H32.4559C32.936 7.07788 33.2059 7.33301 33.2059 7.76782V8.45898H36.702C37.182 8.45898 37.452 8.729 37.452 9.20898V11.8799H37.887C38.3669 11.8799 38.637 12.1489 38.637 12.6289V13.1399C38.637 13.6199 38.3669 13.8899 37.887 13.8899H33.9409C34.871 14.8359 36.236 15.436 38.083 15.7358C38.653 15.8259 38.7729 16.1409 38.457 16.605C38.308 16.8159 38.173 17.0569 38.052 17.281C37.8419 17.6719 37.542 17.8369 37.0919 17.7468C34.886 17.281 33.386 16.366 32.291 14.8809C31.4199 16.0798 29.876 17.0569 27.2949 17.7158C26.844 17.821 26.5439 17.686 26.304 17.2959L25.959 16.771C25.614 16.3069 25.749 15.9609 26.335 15.8259C28.464 15.3459 29.6649 14.6848 30.325 13.8899H26.4249C25.944 13.8899 25.673 13.6199 25.673 13.1399V12.6289ZM25.7939 5.80298V5.36792C25.7939 4.88794 26.064 4.61792 26.5439 4.61792H28.464V4.33203C28.464 3.85205 28.735 3.58203 29.215 3.58203H29.77C30.25 3.58203 30.52 3.76196 30.52 4.09302V4.61792H33.746V4.33203C33.746 3.85205 34.017 3.58203 34.4969 3.58203H35.067C35.547 3.58203 35.817 3.76196 35.817 4.09302V4.61792H37.767C38.2479 4.61792 38.5179 4.88794 38.5179 5.36792V5.80298C38.5179 6.28296 38.2479 6.55298 37.767 6.55298H35.817V7.01904C35.817 7.49902 35.547 7.76782 35.067 7.76782H34.4969C34.017 7.76782 33.746 7.54395 33.746 7.15283V6.55298H30.52V7.01904C30.52 7.49902 30.25 7.76782 29.77 7.76782H29.215C28.735 7.76782 28.464 7.49902 28.464 7.01904V6.55298H26.5439C26.064 6.55298 25.7939 6.28296 25.7939 5.80298ZM31.03 10.335H28.989V11.8799H31.03V10.335ZM35.337 10.335H33.2059V11.8799H35.337V10.335Z" fill="#231815"/>
<path d="M41.3741 12.7949C42.034 11.6399 42.59 10.0488 42.904 8.62402H42.1401C41.6601 8.62402 41.389 8.35303 41.389 7.87305V7.36401C41.389 6.88403 41.6601 6.61401 42.1401 6.61401H42.9941V4.33203C42.9941 3.85205 43.264 3.58203 43.7441 3.58203H44.165C44.6451 3.58203 44.915 3.85205 44.915 4.33203V6.61401H45.591H46.085V6.62793C47.211 6.02783 48.261 5.03687 48.9361 4.09302C49.1771 3.74805 49.4321 3.59692 49.8371 3.59692H50.5561C50.946 3.59692 51.2181 3.73291 51.471 4.06201C52.237 5.03687 53.2121 5.90796 54.262 6.44897C54.7131 6.67285 54.8181 6.98804 54.563 7.42285C54.4581 7.60303 54.352 7.79883 54.262 7.979C54.037 8.42896 53.7231 8.59399 53.377 8.3689C53.1981 8.26294 53.032 8.14404 52.852 8.02393C52.852 8.48901 52.5831 8.75903 52.102 8.75903H51.2021V9.479H53.392C53.872 9.479 54.143 9.74902 54.143 10.229V13.0649C54.143 13.5449 53.872 13.8159 53.392 13.8159H51.8021C52.4621 14.9109 53.2121 15.4509 54.0981 15.8259C54.579 16.021 54.652 16.3069 54.3381 16.7258C54.217 16.8909 54.1131 17.0569 54.023 17.2219C53.768 17.657 53.467 17.8069 53.032 17.5959C52.027 17.1008 51.173 16.396 50.4521 15.165C49.882 16.1409 48.9521 17.04 47.4061 17.686C46.97 17.866 46.6561 17.7158 46.4161 17.312L46.19 16.9958C45.8751 16.5459 45.981 16.217 46.506 15.99C47.9471 15.3909 48.6661 14.625 49.011 13.8159H47.316C46.835 13.8159 46.566 13.5449 46.566 13.0649V10.229C46.566 9.74902 46.835 9.479 47.316 9.479H49.342V8.75903H48.5311C48.0511 8.75903 47.7811 8.60889 47.7811 8.35303V7.948C47.616 8.05396 47.466 8.17285 47.3011 8.26294C46.8801 8.54883 46.5351 8.45898 46.371 8.09888C46.2801 7.91797 46.19 7.72388 46.085 7.54395V7.87305C46.085 8.35303 45.8751 8.62402 45.501 8.62402H44.915V9.10498C45.17 9.49487 45.7711 10.439 46.1451 11.054C46.355 11.415 46.341 11.7449 46.131 12.0898L46.0261 12.27C45.695 12.825 45.305 12.946 45.17 12.584C45.095 12.376 45.0051 12.135 44.915 11.9099V17.0859C44.915 17.5659 44.6451 17.8369 44.165 17.8369H43.7441C43.264 17.8369 42.9941 17.5659 42.9941 17.0859V13.0649C42.86 13.4548 42.71 13.845 42.559 14.1899C42.289 14.791 41.809 14.791 41.57 14.2659L41.3441 13.8298C41.149 13.4548 41.164 13.1541 41.3741 12.7949ZM49.342 11.115H48.351V12.165H49.342V11.115ZM51.5771 6.98804C51.0521 6.4939 50.5871 5.95288 50.257 5.45801C49.9271 5.96802 49.477 6.4939 48.9361 6.98804H51.5771ZM52.2971 11.115H51.2021V12.165H52.2971V11.115Z" fill="#231815"/>
<path d="M60.427 12.7053V11.1895C60.427 10.7095 60.697 10.4395 61.177 10.4395H62.677C63.157 10.4395 63.427 10.7095 63.427 11.1895V12.7053C63.427 13.1853 63.157 13.4553 62.677 13.4553H61.177C60.697 13.4553 60.427 13.1853 60.427 12.7053Z" fill="#231815"/>
<path d="M58.167 7.3584C56.811 7.3584 55.709 6.25732 55.709 4.90039C55.709 3.54443 56.811 2.44336 58.167 2.44336C59.5229 2.44336 60.631 3.54443 60.631 4.90039C60.631 6.25732 59.5229 7.3584 58.167 7.3584ZM58.174 2.79443C57.017 2.79443 56.067 3.74438 56.067 4.90039C56.067 6.05737 57.017 7.00732 58.174 7.00732C59.33 7.00732 60.28 6.05737 60.28 4.90039C60.28 3.74438 59.33 2.79443 58.174 2.79443ZM58.959 6.42944L58.2429 5.22437H57.754V6.42944H57.1959V3.33154H58.256C58.876 3.33154 59.337 3.64136 59.337 4.24634C59.337 4.68042 59.151 4.95044 58.8209 5.11548L59.599 6.42944H58.959ZM58.215 3.86841H57.754V4.70142H58.2219C58.5179 4.70142 58.759 4.59839 58.759 4.25342C58.759 3.97144 58.49 3.86841 58.215 3.86841Z" fill="#231815"/>
<path d="M67.989 6.61304C67.989 6.13306 68.261 5.86206 68.741 5.86206H73.4669V4.33203C73.4669 3.85107 73.7369 3.58203 74.2169 3.58203H74.848C75.3259 3.58203 75.598 3.85107 75.598 4.33203V5.86206H80.3989C80.879 5.86206 81.1489 6.13306 81.1489 6.61304V7.24292C81.1489 7.7229 80.879 7.99292 80.3989 7.99292H79.1389C78.402 10.0789 77.428 11.8188 76.197 13.2739C77.3979 14.2039 78.853 14.9399 80.563 15.436C81.104 15.585 81.208 15.916 80.879 16.366C80.6689 16.666 80.458 16.9661 80.293 17.2659C80.053 17.657 79.739 17.791 79.303 17.657C77.353 17.04 75.7469 16.1709 74.427 15.0149C73.077 16.1409 71.4709 17.011 69.64 17.6709C69.204 17.8359 68.89 17.6851 68.666 17.281C68.515 17.0249 68.35 16.741 68.1849 16.4858C67.885 16.0349 68.005 15.675 68.531 15.5259C70.1959 15.001 71.636 14.2959 72.8519 13.364C71.667 11.8789 70.751 10.0789 70 7.99292H68.741C68.261 7.99292 67.989 7.7229 67.989 7.24292V6.61304ZM74.562 11.7439C75.447 10.6938 76.152 9.44897 76.677 7.99292H72.327C72.866 9.38794 73.6019 10.6489 74.562 11.7439Z" fill="#231815"/>
<path d="M84.183 8.20386C84.4239 7.82788 84.7689 7.70898 85.188 7.88892C85.6989 8.09985 86.239 8.3689 86.6899 8.63892C87.094 8.89404 87.1539 9.26904 86.9 9.67505L86.5549 10.2148C86.2839 10.6499 85.9399 10.6799 85.5189 10.394C85.129 10.1389 84.6629 9.85498 84.214 9.62988C83.7639 9.38892 83.6579 9.04395 83.9289 8.60889L84.183 8.20386ZM85.954 12.345C86.1939 11.865 86.584 11.7749 86.99 12.135L87.4089 12.511C87.74 12.7949 87.8149 13.126 87.634 13.5449C87.1389 14.6709 86.584 15.811 86.0139 16.8909C85.7739 17.3569 85.3989 17.447 84.98 17.116L84.3929 16.667C84.0339 16.3809 83.958 16.0359 84.1989 15.6309C84.724 14.7148 85.37 13.5449 85.954 12.345ZM86.359 6.41797C85.985 6.13403 85.505 5.83398 85.053 5.59302C84.604 5.33789 84.499 4.97803 84.7979 4.55688L85.084 4.16699C85.339 3.80688 85.6839 3.68799 86.089 3.88281C86.5999 4.12183 87.1389 4.42188 87.5739 4.70801C87.979 4.97803 88.0239 5.33789 87.754 5.7439L87.395 6.26904C87.109 6.67383 86.765 6.71899 86.359 6.41797ZM87.589 10.1838C87.589 9.70386 87.86 9.43384 88.3399 9.43384H91.1009V7.64795H89.0449C88.5649 7.64795 88.2949 7.37891 88.2949 6.89893V6.32886C88.2949 5.8479 88.5649 5.57886 89.0449 5.57886H91.1009V4.33203C91.1009 3.85205 91.3709 3.58203 91.8509 3.58203H92.511C92.9909 3.58203 93.261 3.85205 93.261 4.33203V5.57886H95.437C95.917 5.57886 96.187 5.8479 96.187 6.32886V6.89893C96.187 7.37891 95.917 7.64795 95.437 7.64795H93.261V9.43384H96.141C96.6219 9.43384 96.8929 9.70386 96.8929 10.1838V10.7539C96.8929 11.2339 96.6219 11.5059 96.141 11.5059H92.061L92.2259 11.55C91.806 12.72 91.311 13.9209 90.8449 14.9399L93.8609 14.76C93.6959 14.4758 93.516 14.2048 93.3359 13.9348C93.052 13.5159 93.1259 13.155 93.577 12.9009L94.072 12.6299C94.4759 12.405 94.8359 12.4658 95.1069 12.8398C95.8569 13.8608 96.593 15.0459 97.042 16.051C97.2219 16.4868 97.087 16.801 96.683 17.041L96.0229 17.4309C95.5709 17.686 95.2419 17.6108 95.1069 17.251C95.032 17.071 94.9559 16.877 94.8659 16.6809C92.6909 16.8909 90.41 17.0859 88.594 17.2368C88.114 17.282 87.8299 17.0259 87.77 16.561L87.6789 15.8718C87.62 15.3608 87.785 15.075 88.0999 15.061L88.61 15.0459C89.0289 13.9958 89.4809 12.675 89.765 11.5059H88.3399C87.86 11.5059 87.589 11.2339 87.589 10.7539V10.1838Z" fill="#231815"/>
<path d="M101.089 16.2749V15.4189C101.089 14.939 101.359 14.6689 101.839 14.6689H107.87V8.39697H101.839C101.359 8.39697 101.089 8.12695 101.089 7.64697V6.79297C101.089 6.31299 101.359 6.04102 101.839 6.04102H109.566C110.046 6.04102 110.316 6.31299 110.316 6.79297V16.2749C110.316 16.7549 110.046 17.0249 109.566 17.0249H101.839C101.359 17.0249 101.089 16.7549 101.089 16.2749Z" fill="#231815"/>
<path d="M113.861 12.3892V11.5332C113.861 11.0532 114.131 10.7832 114.611 10.7832H120.043C120.523 10.7832 120.793 11.0532 120.793 11.5332V12.3892C120.793 12.8691 120.523 13.1392 120.043 13.1392H114.611C114.131 13.1392 113.861 12.8691 113.861 12.3892Z" fill="#231815"/>
<path d="M123.708 16.7871V15.5862C123.708 15.1812 123.873 14.9111 124.217 14.6851C126.859 13.0361 128.569 11.0403 129.694 8.2041H125.014C124.532 8.2041 124.264 7.93408 124.264 7.4541V6.53906C124.264 6.05811 124.532 5.78906 125.014 5.78906H132.05C132.574 5.78906 132.845 6.10425 132.709 6.61426C132.245 8.59424 131.405 10.2903 130.489 11.7002C131.194 12.7351 132.216 13.7102 133.07 14.4463C133.37 14.7012 133.491 14.9712 133.491 15.3611V16.5771C133.491 17.2061 133.07 17.4312 132.561 17.0413C131.255 16.0061 130.22 14.9402 129.155 13.5161C128.119 14.7913 126.303 16.3523 124.593 17.3271C124.098 17.6272 123.708 17.3711 123.708 16.7871Z" fill="#231815"/>
<path d="M21.4199 10.71C21.4199 5.18799 18.6899 0 10.71 0C2.72998 0 0 5.18799 0 10.71C0 16.2319 2.72998 21.4199 10.71 21.4199C18.6899 21.4199 21.4199 16.2319 21.4199 10.71Z" fill="#FCCF00"/>
<path d="M4.896 14.2764C4.896 13.4753 5.30493 12.8774 6.36304 12.8774C7.13098 12.8774 7.88196 13.2363 8.53003 13.3723C8.75195 12.9805 8.87097 12.2805 8.93994 11.8364L9.07593 10.8813C7.93298 10.6934 6.56799 10.2153 5.61194 9.22632L6.68701 7.80933C7.59192 8.5603 8.53003 8.91943 9.31494 9.08936C9.67297 6.63232 10.646 5.0625 12.984 5.0625C14.161 5.0625 15.51 5.84741 15.51 7.45142C15.51 8.74854 14.469 10.7275 11.1069 10.9663L10.936 12.1445C10.851 12.7075 10.646 13.5945 10.3729 14.0554C10.817 14.2424 11.397 14.3284 12.046 14.3284C13.257 14.3284 14.213 13.6455 14.9979 12.1445L16.448 12.8435C15.561 14.7373 14.11 16.0515 11.9769 15.9834C10.97 15.9495 9.96399 15.6934 9.02502 15.3694C8.44495 15.8125 7.71094 15.9834 6.95996 15.9834C5.66394 15.9834 4.91296 15.2153 4.896 14.2764ZM13.496 7.50244C13.496 7.07544 13.223 6.85449 12.848 6.85449C12.131 6.85449 11.619 7.80933 11.397 9.15747C13.103 8.91943 13.496 7.96338 13.496 7.50244Z" fill="white"/>
</svg>
